packages/foundations/assets/icons/functional/images/business & payment/shopping_cart.svg

<svg xmlns="http://www.w3.org/2000/svg" width="32" height="32" fill="none"><path fill="#1A1C1F" fill-rule="evenodd" d="M3.421 2.937a.994.994 0 0 0-.547 1.356c.218.475.452.56 1.538.561.463 0 .929.024 1.036.054.257.071.557.387.659.692.044.135.824 3.855 1.733 8.267 1.865 9.058 1.723 8.505 2.368 9.151.242.241.462.399.743.533.742.352.604.346 7.426.33l6.13-.014.218-.125a.979.979 0 0 0 .022-1.707l-.24-.142-6.271-.026-6.271-.027-.191-.131a1.1 1.1 0 0 1-.285-.29c-.104-.177-.615-2.44-.562-2.491.018-.018 3.153-.361 6.966-.762s7.095-.764 7.291-.806c.919-.196 1.805-.938 2.125-1.779.053-.141.509-1.874 1.013-3.852.855-3.352.915-3.621.893-3.972-.045-.697-.428-1.283-1.068-1.63l-.334-.18-9.808-.027-9.808-.027-.146-.595c-.081-.328-.227-.747-.325-.933-.35-.659-1.099-1.222-1.865-1.403-.389-.092-2.226-.111-2.44-.025m22.926 8.418c-.949 3.707-.978 3.794-1.349 3.969-.137.065-2.056.285-7.341.841-3.936.415-7.169.741-7.185.725s-.422-1.944-.903-4.286L8.647 8.12 8.6 7.893h18.633zM11.506 25.922c-.986.246-1.518 1.332-1.097 2.243.476 1.031 1.809 1.278 2.603.481.328-.33.446-.592.471-1.046.037-.688-.308-1.272-.915-1.55-.318-.146-.773-.2-1.062-.128m11.507-.009a1.62 1.62 0 0 0-1.239 1.493c-.044.64.272 1.211.847 1.529.254.141.336.158.739.158.532 0 .822-.114 1.167-.459a1.6 1.6 0 0 0-.439-2.579c-.296-.144-.807-.212-1.075-.142"/></svg>

<svg width="32" height="32" viewBox="0 0 32 32" fill="none" xmlns="http://www.w3.org/2000/svg"><path d="M3.421 2.937 C 2.871 3.158,2.628 3.759,2.874 4.293 C 3.092 4.768,3.326 4.853,4.412 4.854 C 4.875 4.854,5.341 4.878,5.448 4.908 C 5.705 4.979,6.005 5.295,6.107 5.600 C 6.151 5.735,6.931 9.455,7.840 13.867 C 9.705 22.925,9.563 22.372,10.208 23.018 C 10.450 23.259,10.670 23.417,10.951 23.551 C 11.693 23.903,11.555 23.897,18.377 23.881 L 24.507 23.867 24.725 23.742 C 25.396 23.357,25.409 22.424,24.747 22.035 L 24.507 21.893 18.236 21.867 L 11.965 21.840 11.774 21.709 C 11.669 21.637,11.541 21.507,11.489 21.419 C 11.385 21.242,10.874 18.979,10.927 18.928 C 10.945 18.910,14.080 18.567,17.893 18.166 C 21.707 17.765,24.988 17.402,25.184 17.360 C 26.103 17.164,26.989 16.422,27.309 15.581 C 27.362 15.440,27.818 13.707,28.322 11.729 C 29.177 8.377,29.237 8.108,29.215 7.757 C 29.170 7.060,28.787 6.474,28.147 6.127 L 27.813 5.947 18.005 5.920 L 8.197 5.893 8.051 5.298 C 7.970 4.970,7.824 4.551,7.726 4.365 C 7.376 3.706,6.627 3.143,5.861 2.962 C 5.472 2.870,3.635 2.851,3.421 2.937 M26.347 11.355 C 25.398 15.062,25.369 15.149,24.998 15.324 C 24.861 15.389,22.942 15.609,17.657 16.165 C 13.721 16.580,10.488 16.906,10.472 16.890 C 10.456 16.874,10.050 14.946,9.569 12.604 C 9.087 10.262,8.672 8.245,8.647 8.120 L 8.600 7.893 17.917 7.893 L 27.233 7.893 26.347 11.355 M11.506 25.922 C 10.520 26.168,9.988 27.254,10.409 28.165 C 10.885 29.196,12.218 29.443,13.012 28.646 C 13.340 28.316,13.458 28.054,13.483 27.600 C 13.520 26.912,13.175 26.328,12.568 26.050 C 12.250 25.904,11.795 25.850,11.506 25.922 M23.013 25.913 C 22.297 26.100,21.825 26.669,21.774 27.406 C 21.730 28.046,22.046 28.617,22.621 28.935 C 22.875 29.076,22.957 29.093,23.360 29.093 C 23.892 29.093,24.182 28.979,24.527 28.634 C 25.310 27.850,25.088 26.544,24.088 26.055 C 23.792 25.911,23.281 25.843,23.013 25.913 " fill="#1A1C1F" stroke="none" fill-rule="evenodd"></path></svg>
